X:182
T:The Waiting Game
M:4/4
L:1/8
C:Keith Murphy
S:Nightingale "3"
R:Smooth Reel
K:A
||:"A"c3d cBAG | FECE "D"B,2A,C |"A/C#"B,A,B,C ECA,C | B,A,B,C "D"EFAB |
"A" c3d cBAG | FECE "D"B,2A,C |"A/C#"B,A,B,C "A"ECA,C | "E"B,A,B,C "D (A
)"A,4 :||:
"F#mi"c2fc "D"BAFG | "A"AGAF "D"AEAB | "A/C#"cefg "D"agfe | "A"ecBA "E"
B2 AB |
"F#mi"c2fc "D"BAFG | "A"AGAF "D"AEAB | "A/C#"cefg "C#mi" agfe | "Bmi" e
cBA "E"B2 AB :||
